X: 206
T: Sweet Forget-me-not, The
M:3/4
R:waltz
L:1/8
Z:Alf Warnock - alf0@rogers.com
K:C
"C"G4 E2|G4 c2|"C7"e4 e2|e4 c2|\
"F"d2 c4|A2 c4|"C"G6-|G6|
"F"A4 G2|A2 c4|"C"G4 E2|G4 c2|\
"D7"d4 d2|d2 e4|"G7"d6-|d6|
"C"G4 E2|G4 c2|"C7"e4 e2|e4 c2|\
"F"d2 c4|A2 c4|"C"G6-|G6|
"F"A4 G2|A2 c4|"C"G4 E2|"Am"G2 c2 d2|\
"Dm"e4 f2|"G7"e4 d2|"C"c6-|c4 z2|

